(generated by gdecode sample generator - GRBL 3-axis pocket)
G21
G90
G54
G17
T1 M6
S12000 M3
G43 H1
M8
G0 Z5
G0 X-15 Y-15
G1 Z-2 F200
G1 X15 Y-15 F600
G1 X15 Y15
G1 X-15 Y15
G1 X-15 Y-15
G1 X12 Y-12 F600
G1 X12 Y12
G1 X-12 Y12
G1 X-12 Y-12
G1 X9 Y-9 F600
G1 X9 Y9
G1 X-9 Y9
G1 X-9 Y-9
G1 X6 Y-6 F600
G1 X6 Y6
G1 X-6 Y6
G1 X-6 Y-6
G1 X3 Y-3 F600
G1 X3 Y3
G1 X-3 Y3
G1 X-3 Y-3
G0 Z5
G0 X-15 Y-15
G1 Z-4 F200
G1 X15 Y-15 F600
G1 X15 Y15
G1 X-15 Y15
G1 X-15 Y-15
G1 X12 Y-12 F600
G1 X12 Y12
G1 X-12 Y12
G1 X-12 Y-12
G1 X9 Y-9 F600
G1 X9 Y9
G1 X-9 Y9
G1 X-9 Y-9
G1 X6 Y-6 F600
G1 X6 Y6
G1 X-6 Y6
G1 X-6 Y-6
G1 X3 Y-3 F600
G1 X3 Y3
G1 X-3 Y3
G1 X-3 Y-3
G0 Z5
G0 X-15 Y-15
G1 Z-6 F200
G1 X15 Y-15 F600
G1 X15 Y15
G1 X-15 Y15
G1 X-15 Y-15
G1 X12 Y-12 F600
G1 X12 Y12
G1 X-12 Y12
G1 X-12 Y-12
G1 X9 Y-9 F600
G1 X9 Y9
G1 X-9 Y9
G1 X-9 Y-9
G1 X6 Y-6 F600
G1 X6 Y6
G1 X-6 Y6
G1 X-6 Y-6
G1 X3 Y-3 F600
G1 X3 Y3
G1 X-3 Y3
G1 X-3 Y-3
G0 Z5
M9
M5
G0 X0 Y0
M30
