; generated by gdecode sample generator (Cura-flavored)
M140 S60
M104 S210
M190 S60
M109 S210
M82
G21
G90
G28
G92 E0
M106 S255
;LAYER:0
G0 F3000 X90 Y90 Z0.2
;TYPE:WALL-OUTER
G1 F1200 X110 Y90 E0.74835
G1 F1200 X110 Y110 E1.49671
G1 F1200 X90 Y110 E2.24506
G1 F1200 X90 Y90 E2.99341
;LAYER:1
G0 F3000 X90 Y90 Z0.4
;TYPE:WALL-OUTER
G1 F1200 X110 Y90 E3.74177
G1 F1200 X110 Y110 E4.49012
G1 F1200 X90 Y110 E5.23847
G1 F1200 X90 Y90 E5.98682
;LAYER:2
G0 F3000 X90 Y90 Z0.6
;TYPE:WALL-OUTER
G1 F1200 X110 Y90 E6.73518
G1 F1200 X110 Y110 E7.48353
G1 F1200 X90 Y110 E8.23188
G1 F1200 X90 Y90 E8.98024
;LAYER:3
G0 F3000 X90 Y90 Z0.8
;TYPE:WALL-OUTER
G1 F1200 X110 Y90 E9.72859
G1 F1200 X110 Y110 E10.47694
G1 F1200 X90 Y110 E11.22530
G1 F1200 X90 Y90 E11.97365
;LAYER:4
G0 F3000 X90 Y90 Z1
;TYPE:WALL-OUTER
G1 F1200 X110 Y90 E12.72200
G1 F1200 X110 Y110 E13.47035
G1 F1200 X90 Y110 E14.21871
G1 F1200 X90 Y90 E14.96706
;LAYER:5
G0 F3000 X90 Y90 Z1.2
;TYPE:WALL-OUTER
G1 F1200 X110 Y90 E15.71541
G1 F1200 X110 Y110 E16.46377
G1 F1200 X90 Y110 E17.21212
G1 F1200 X90 Y90 E17.96047
;LAYER:6
G0 F3000 X90 Y90 Z1.4
;TYPE:WALL-OUTER
G1 F1200 X110 Y90 E18.70883
G1 F1200 X110 Y110 E19.45718
G1 F1200 X90 Y110 E20.20553
G1 F1200 X90 Y90 E20.95389
;LAYER:7
G0 F3000 X90 Y90 Z1.6
;TYPE:WALL-OUTER
G1 F1200 X110 Y90 E21.70224
G1 F1200 X110 Y110 E22.45059
G1 F1200 X90 Y110 E23.19894
G1 F1200 X90 Y90 E23.94730
;LAYER:8
G0 F3000 X90 Y90 Z1.8
;TYPE:WALL-OUTER
G1 F1200 X110 Y90 E24.69565
G1 F1200 X110 Y110 E25.44400
G1 F1200 X90 Y110 E26.19236
G1 F1200 X90 Y90 E26.94071
;LAYER:9
G0 F3000 X90 Y90 Z2
;TYPE:WALL-OUTER
G1 F1200 X110 Y90 E27.68906
G1 F1200 X110 Y110 E28.43742
G1 F1200 X90 Y110 E29.18577
G1 F1200 X90 Y90 E29.93412
;LAYER:10
G0 F3000 X90 Y90 Z2.2
;TYPE:WALL-OUTER
G1 F1200 X110 Y90 E30.68247
G1 F1200 X110 Y110 E31.43083
G1 F1200 X90 Y110 E32.17918
G1 F1200 X90 Y90 E32.92753
;LAYER:11
G0 F3000 X90 Y90 Z2.4
;TYPE:WALL-OUTER
G1 F1200 X110 Y90 E33.67589
G1 F1200 X110 Y110 E34.42424
G1 F1200 X90 Y110 E35.17259
G1 F1200 X90 Y90 E35.92095
;LAYER:12
G0 F3000 X90 Y90 Z2.6
;TYPE:WALL-OUTER
G1 F1200 X110 Y90 E36.66930
G1 F1200 X110 Y110 E37.41765
G1 F1200 X90 Y110 E38.16600
G1 F1200 X90 Y90 E38.91436
;LAYER:13
G0 F3000 X90 Y90 Z2.8
;TYPE:WALL-OUTER
G1 F1200 X110 Y90 E39.66271
G1 F1200 X110 Y110 E40.41106
G1 F1200 X90 Y110 E41.15942
G1 F1200 X90 Y90 E41.90777
;LAYER:14
G0 F3000 X90 Y90 Z3
;TYPE:WALL-OUTER
G1 F1200 X110 Y90 E42.65612
G1 F1200 X110 Y110 E43.40448
G1 F1200 X90 Y110 E44.15283
G1 F1200 X90 Y90 E44.90118
M107
M104 S0
M140 S0
G28 X0
M84
